X:12816
T:Parti de Saratoga
M:4/4
K:D
FG|A3BA2F2|A2d2f4|e2g2B2c2|edcBA2FG|!A3BA2F2|A2d2f4|e2g2B2c2|d6:||!fg|abag fgaf|defd ecAc|e2g2B2c2|edcBA2fg|!abag fgaf|defd ecAc|e2g2B2c2|d6:||
